X:1
T:Title
%%score { 1 | 2 }
L:1/8
M:4/4
K:F
V:1 treble nm="Grand Piano"
V:2 treble 
V:1
 z4 z2[Q:1/4=100] c2 | c3 c =Bcdd | c6 c2 | d3 d ^c2 e2 |[M:3/4] d6 |[M:1/4] e2 | %6
[M:4/4] f3 f eefd | c6 A2 | c3 c c2 B2 |[M:3/4] A6 |[M:1/4] A2 |[M:4/4] c3 c cccc | c6 c2 | %13
 =B3 d e2 d2 |[M:3/4] c6 |[M:1/4] e2 |[M:4/4] f3 f eefd | c6 A2 | c3 c c2 c2 |[M:3/4] [Ac]6 |] %20
V:2
 z4 z2 [FA]2 | [FA]3 [FA] [F_A][F=A][F=B][FB] | [FA]6 [FA]2 | [DFA]3 [DFA] [A,EA]2 [^CGA]2 | %4
[M:3/4] [DFA]6 |[M:1/4] [CBc]2 |[M:4/4] [FAc]3 [FAc] [Gc][CGc][A,FB][CEB] | [FA]6 [CF]2 | %8
 [CEG]3 [CFA] [CGB]2 [CEG]2 |[M:3/4] F6 |[M:1/4] F2 |[M:4/4] [FA]3 [FA] [CEG][CFA][CGB][CGB] | %12
 [FA]6 [FA]2 | [DG]3 [G=B] [Gc]2 [FGB]2 |[M:3/4] [EG]6 |[M:1/4] [CBc]2 | %16
[M:4/4] [FAc]3 [FAc] [GBc][GBc][FAc][FB] | [FA]6 [CF]2 | [CEG]3 [CFA] [CGB]2 [CEG]2 | %19
[M:3/4] [F,F]6 |] %20

